X: 9
T: Lisnagun, The
Z: JACKB
S: https://thesession.org/tunes/3842#setting25790
R: jig
M: 6/8
L: 1/8
K: Cmaj
cAG c3|deg e3|deg edc|dcA cAG|
cAG c3|deg e3|deg edc|1 dcA c3:|2 dcA cde||
g3 edc|deg e3|deg edc|dcA cAG|
g3 edc|deg e2c|deg edc|dcA cde|
g3 age|deg e3|deg edc|dcA cAG|
cAG c3|deg e3|deg deg|deg deg||
